Sources/FrostedUI/Resources/Icons.xcassets/bellSlash16.imageset/bell-slash-16.svg

<svg width="16" height="16" viewBox="0 0 16 16" fill="none" xmlns="http://www.w3.org/2000/svg" data-fui-icon="true">
  <path
    d="M14.7197 0.219727C15.0126 -0.0731667 15.4874 -0.0731667 15.7803 0.219727C16.0732 0.51262 16.0732 0.98738 15.7803 1.28027L1.28027 15.7803C0.98738 16.0732 0.51262 16.0732 0.219727 15.7803C-0.0731667 15.4874 -0.0731667 15.0126 0.219727 14.7197L14.7197 0.219727ZM13.1778 6.00291C13.3503 5.83039 13.6436 5.92543 13.6727 6.16766C13.6978 6.37649 13.7152 6.56661 13.7266 6.73242C13.75 7.07259 13.858 7.3711 14.0361 7.59375L14.3594 7.99707C15.296 9.16834 15.252 10.8457 14.2559 11.9668C13.6719 12.6236 12.8339 12.9996 11.9551 13H11.3009C11.1353 13 11.0025 13.1348 10.9876 13.2998C10.8437 14.9033 9.55122 15.9994 8.00098 16C6.75831 16 5.682 15.2961 5.22924 14.1912C5.18598 14.0856 5.21513 13.9656 5.29582 13.8849L7.59378 11.5878C7.65004 11.5316 7.72633 11.5 7.80587 11.5H11.9551C12.4056 11.4996 12.8354 11.3065 13.1348 10.9697C13.6452 10.395 13.6682 9.53511 13.1885 8.93457L12.8652 8.53125C12.5189 8.0984 12.3292 7.58913 12.2572 7.08149C12.2446 6.99243 12.2771 6.90355 12.3407 6.83995L13.1778 6.00291ZM6.80103 13C6.63533 13 6.49782 13.1355 6.52607 13.2988C6.65268 14.0308 7.24526 14.5 8.00098 14.5C8.75615 14.4995 9.34908 14.0304 9.47584 13.2988C9.50413 13.1355 9.36663 13 9.20092 13H6.80103ZM8.00098 0C9.40028 0.000287938 10.4728 0.435066 11.2856 1.08965C11.4187 1.19684 11.4225 1.39484 11.3017 1.51567L10.6617 2.1557C10.5499 2.26751 10.3713 2.27204 10.2442 2.178C9.68092 1.76135 8.95329 1.50025 8.00098 1.5C6.25743 1.5 5.26771 2.37349 4.65918 3.47754C4.02655 4.62595 3.82847 6.00492 3.77148 6.83496C3.73117 7.42149 3.53862 8.02743 3.13672 8.53027L2.81348 8.93457C2.5348 9.28312 2.42625 9.71872 2.48359 10.1353C2.49793 10.2396 2.47012 10.3473 2.39571 10.4217L1.65105 11.1663C1.51109 11.3063 1.27592 11.2743 1.20064 11.0912C0.784694 10.0799 0.927079 8.89151 1.64258 7.99707L1.96582 7.59375C2.14356 7.37115 2.251 7.07222 2.27441 6.73242C2.33671 5.82495 2.55591 4.18637 3.3457 2.75293C4.1602 1.27531 5.60068 0 8.00098 0Z"
    fill="currentColor"
  />
</svg>

<svg xmlns="http://www.w3.org/2000/svg" width="16" height="16" fill="none" data-fui-icon="true" viewBox="0 0 16 16"><path fill="currentColor" d="M14.72.22a.75.75 0 1 1 1.06 1.06l-14.5 14.5a.75.75 0 1 1-1.06-1.06zm-1.542 5.783a.289.289 0 0 1 .495.165c.025.208.042.399.054.564.023.34.131.64.31.862l.322.403A3.081 3.081 0 0 1 11.955 13h-.654a.32.32 0 0 0-.313.3C10.844 14.903 9.55 16 8 16c-1.243 0-2.319-.704-2.772-1.809a.28.28 0 0 1 .067-.306l2.298-2.297a.3.3 0 0 1 .212-.088h4.15a1.581 1.581 0 0 0 1.233-2.565l-.324-.404a3 3 0 0 1-.608-1.45.29.29 0 0 1 .084-.241zM6.8 13c-.166 0-.303.136-.275.299.127.732.72 1.201 1.475 1.201s1.348-.47 1.475-1.201c.028-.163-.11-.299-.275-.299zm1.2-13c1.4 0 2.472.435 3.285 1.09a.286.286 0 0 1 .016.426l-.64.64a.32.32 0 0 1-.418.022c-.563-.417-1.29-.678-2.243-.678-1.744 0-2.733.873-3.342 1.978-.632 1.148-.83 2.527-.888 3.357a3.04 3.04 0 0 1-.634 1.695l-.324.405a1.58 1.58 0 0 0-.33 1.2.34.34 0 0 1-.087.287l-.745.744c-.14.14-.375.108-.45-.075a3.08 3.08 0 0 1 .442-3.094l.323-.403c.178-.223.285-.522.308-.862.063-.907.282-2.546 1.072-3.98C4.16 1.276 5.6 0 8 0"/></svg>
